X:30
T:Bashful Alley
A:Lancaster
C:Andy Hornby
M:9/8
N:June 94
O:England
R:Slip Jig
Z:Richard Robinson 
%%Copyright:Andy Hornby
%%TUNEURL: http://www.leeds.ac.uk/music/Info/RRTuneBk/gettune/00000764.html
%%ID:00000764
K:D
f2d dcd B2d|A2d dcd efg|\
f2d dcd Bcd|G2g g2f ecA:|
|:F2A E2A D2A|FGA DFA BAG|\
F2d dcd cAF|E2G GFG BAG :|
|:f2a afa e2a|d2a afa bag|\
f2a afa d2f|e2g gfg bag:|
|:f2d A2c d3|A2B G2A FGA|\
f2d A2c d2A|B2G E2e cBA:|
